Obsidian-SemiLight/actions/16s/folder-stash.svg

<svg viewBox="0 0 16 16" xmlns="http://www.w3.org/2000/svg"><path d="m2 2v1 3 1 6 1h7v-1h-6v-6h10 1v-1-1-1h-4.9921875l-2-2-.0078125.0078125v-.0078125h-4zm1 1h3.5917969l1.0019531 1h-.59375v.0078125l-.0078125-.0078125-2 2h-1.9921875zm8 5v1h-1v4 1h5v-1-4h-1v-1zm0 2h3v3h-3z" fill="#4d4d4d"/></svg>

<svg xmlns="http://www.w3.org/2000/svg" viewBox="0 0 16 16">
  <defs id="defs3051">
    <style type="text/css" id="current-color-scheme">
      .ColorScheme-Text {
        color:#4d4d4d;
      }
      </style>
  </defs>
 <path style="fill:currentColor;fill-opacity:1;stroke:none" 
       d="M 2 2 L 2 3 L 2 6 L 2 7 L 2 13 L 2 14 L 9 14 L 9 13 L 3 13 L 3 7 L 13 7 L 14 7 L 14 6 L 14 5 L 14 4 L 9.0078125 4 L 7.0078125 2 L 7 2.0078125 L 7 2 L 3 2 L 2 2 z M 3 3 L 6.5917969 3 L 7.59375 4 L 7 4 L 7 4.0078125 L 6.9921875 4 L 4.9921875 6 L 3 6 L 3 3 z M 11 8 L 11 9 L 10 9 L 10 13 L 10 14 L 15 14 L 15 13 L 15 9 L 14 9 L 14 8 L 11 8 z M 11 10 L 14 10 L 14 13 L 11 13 L 11 10 z "
     class="ColorScheme-Text"
     />
</svg>
